logos/kafka-icon.svg

<?xml version="1.0" encoding="UTF-8"?>
<svg width="256px" height="413px" viewBox="0 0 256 413" version="1.1" xmlns="http://www.w3.org/2000/svg" xmlns:xlink="http://www.w3.org/1999/xlink" preserveAspectRatio="xMidYMid">
    <g>
        <path d="M87.9320692,36.714181 C83.382936,32.1427482 77.0364491,29.3196096 69.9808327,29.3196096 C62.9519759,29.3196096 56.6545483,32.1427482 52.1589343,36.714181 L52.0295962,36.714181 C47.4938428,41.2633143 44.6707042,47.614261 44.6707042,54.6431179 C44.6707042,61.6987343 47.4938428,67.9961618 52.0295962,72.5185355 L52.1589343,72.6211139 C56.6545483,77.1702472 62.9519759,79.9666261 69.9808327,79.9666261 C77.0364491,79.9666261 83.382936,77.1702472 87.9320692,72.6211139 L87.9989682,72.5185355 C92.5570213,67.9961618 95.3534002,61.6987343 95.3534002,54.6431179 C95.3534002,47.614261 92.5570213,41.2633143 87.9989682,36.714181 L87.9320692,36.714181 Z M69.9808327,383.353672 C77.0364491,383.353672 83.382936,380.481475 87.9320692,375.985861 L87.9989682,375.852063 C92.5570213,371.365368 95.3534002,365.014422 95.3534002,358.034624 C95.3534002,350.979008 92.5570213,344.654821 87.9989682,340.083388 L87.9320692,340.083388 C83.382936,335.458436 77.0364491,332.662057 69.9808327,332.662057 C62.9519759,332.662057 56.6545483,335.458436 52.1589343,340.083388 L52.0295962,340.083388 C47.4938428,344.654821 44.6707042,350.979008 44.6707042,358.034624 C44.6707042,365.014422 47.4938428,371.365368 52.0295962,375.852063 L52.1589343,375.985861 C56.6545483,380.481475 62.9519759,383.353672 69.9808327,383.353672 Z M207.953367,306.633879 C214.228495,304.988163 219.910452,300.960842 223.375821,294.873031 L223.844114,293.985504 C226.925929,288.209889 227.487881,281.546747 225.842165,275.641794 C224.183069,269.317607 220.106689,263.724849 214.032258,260.2238 L213.679923,259.987423 C207.76159,256.745051 201.018169,256.040381 194.82332,257.712857 C188.525893,259.282754 182.870696,263.488472 179.423166,269.527223 C175.931037,275.507996 175.199608,282.407514 176.872084,288.758461 C178.598078,295.002369 182.634319,300.648647 188.66861,304.176455 L188.70875,304.176455 C194.756421,307.650744 201.60688,308.279595 207.953367,306.633879 Z M95.9688712,180.386512 C89.3146489,173.750129 80.1450235,169.59347 69.9808327,169.59347 C59.8567813,169.59347 50.7094556,173.750129 44.0686131,180.386512 C37.4589901,187.000595 33.38261,196.147921 33.38261,206.285352 C33.38261,216.449543 37.4589901,225.623628 44.0686131,232.31353 C50.7094556,238.896393 59.8567813,243.026292 69.9808327,243.026292 C80.1450235,243.026292 89.3146489,238.896393 95.9688712,232.31353 C102.591874,225.623628 106.668254,216.449543 106.668254,206.285352 C106.668254,196.147921 102.591874,187.000595 95.9688712,180.386512 Z M81.3581257,137.223266 C96.0848295,139.64947 109.335295,146.705086 119.445967,156.896037 L119.526245,156.896037 C121.131822,158.514993 122.701719,160.267747 124.151198,162.042801 L149.434566,147.414216 C146.036096,137.142987 145.879999,126.403464 148.609478,116.341852 C152.217565,102.85501 160.959037,90.7819674 174.062325,83.2045386 L174.494938,82.9458624 C187.455508,75.6003502 202.191132,74.0839725 215.495117,77.6920595 C228.964119,81.2956866 241.11744,90.0772977 248.681489,103.171665 L248.681489,103.198425 C256.209859,116.212514 257.739616,131.157755 254.144909,144.591077 C250.563582,158.069 241.781971,170.222321 228.692063,177.746231 L225.240074,179.788881 L224.887739,179.788881 C212.779016,185.560036 199.461652,186.452023 187.232511,183.23641 C177.188739,180.569369 167.974514,174.976611 160.7628,167.006708 L135.519571,181.590694 C138.418528,189.270702 140.028564,197.55726 140.028564,206.285352 C140.028564,214.986684 138.418528,223.375821 135.519571,231.109347 L160.7628,245.639814 C167.974514,237.567333 177.188739,232.077153 187.232511,229.410112 C200.701514,225.726206 215.637835,227.296103 228.692063,234.900292 L229.526071,235.292766 L229.526071,235.346285 C242.138765,242.972773 250.603721,254.78714 254.144909,268.113424 C257.739616,281.466468 256.209859,296.416169 248.681489,309.457017 L248.226576,310.371304 L248.173057,310.291025 C240.609008,322.86358 228.692063,331.382055 215.535256,334.985683 C202.035034,338.54025 187.103173,337.023873 174.062325,329.526723 L174.062325,329.419684 C160.959037,321.842255 152.217565,309.742453 148.609478,296.286831 C145.879999,286.251978 146.036096,275.507996 149.434566,265.241226 L124.151198,250.65724 C122.701719,252.436754 121.131822,254.10923 119.526245,255.728186 L119.445967,255.804005 C109.335295,265.945896 96.0848295,273.001512 81.3581257,275.351898 L81.3581257,304.568929 C91.8523516,306.763217 101.258354,312.01702 108.630625,319.384832 L108.666305,319.46511 C118.54506,329.290346 124.65963,342.982345 124.65963,358.034624 C124.65963,373.037844 118.54506,386.645104 108.666305,396.523859 L108.630625,396.679957 C98.6849713,406.558712 85.0331117,412.673282 69.9808327,412.673282 C55.0088325,412.673282 41.3391332,406.558712 31.4202388,396.679957 L31.3845593,396.679957 L31.3845593,396.523859 C21.4924245,386.645104 15.3644745,373.037844 15.3644745,358.034624 C15.3644745,342.982345 21.4924245,329.290346 31.3845593,319.46511 L31.3845593,319.384832 L31.4202388,319.384832 C38.7791307,312.01702 48.1985125,306.763217 58.6659788,304.568929 L58.6659788,275.351898 C43.9258952,273.001512 30.7155691,265.945896 20.6182773,255.804005 L20.5112389,255.728186 C7.88962418,243.053052 0,225.623628 0,206.285352 C0,187.000595 7.88962418,169.571171 20.5112389,156.896037 L20.6182773,156.896037 C30.7155691,146.705086 43.9258952,139.64947 58.6659788,137.223266 L58.6659788,108.135573 C48.1985125,105.861006 38.7791307,100.611663 31.4202388,93.2929105 L31.3845593,93.2929105 L31.3845593,93.2126317 C21.4924245,83.2848174 15.3644745,69.6953969 15.3644745,54.6431179 C15.3644745,39.6666577 21.4924245,25.9478991 31.3845593,16.0691441 L31.4202388,16.0200848 C41.3391332,6.11457024 55.0088325,0 69.9808327,0 C85.0331117,0 98.6849713,6.11457024 108.630625,16.0200848 L108.630625,16.0691441 L108.666305,16.0691441 C118.54506,25.9478991 124.65963,39.6666577 124.65963,54.6431179 C124.65963,69.6953969 118.54506,83.2848174 108.666305,93.2126317 L108.630625,93.2929105 C101.258354,100.611663 91.8523516,105.861006 81.3581257,108.135573 L81.3581257,137.223266 Z M223.375821,117.83147 L223.166204,117.519275 C219.674075,111.636621 214.108077,107.716339 207.953367,106.017104 C201.60688,104.344628 194.756421,105.053758 188.66861,108.528047 L188.70875,108.528047 C182.634319,111.975576 178.571319,117.621853 176.872084,123.946041 C175.199608,130.216708 175.931037,137.142987 179.423166,143.177278 L179.539124,143.337836 C183.040173,149.291848 188.606171,153.28795 194.82332,154.906906 C201.071688,156.65966 208.033646,155.928231 214.032258,152.427182 L214.357833,152.271085 C220.262787,148.743276 224.196449,143.177278 225.842165,137.062708 C227.51464,130.76528 226.85011,123.865762 223.375821,117.83147 Z" fill="#1A1919"></path>
    </g>
</svg>

<svg width="256" height="413" xmlns="http://www.w3.org/2000/svg" preserveAspectRatio="xMidYMid">
	<path d="M87.932 36.714c-4.55-4.571-10.896-7.394-17.951-7.394-7.029 0-13.326 2.823-17.822 7.394h-.13c-4.535 4.55-7.358 10.9-7.358 17.93 0 7.055 2.823 13.352 7.359 17.875l.129.102c4.496 4.55 10.793 7.346 17.822 7.346 7.055 0 13.402-2.797 17.951-7.346L88 72.52c4.558-4.523 7.354-10.82 7.354-17.876 0-7.029-2.796-13.38-7.354-17.929h-.067Zm-17.951 346.64a25.504 25.504 0 0 0 17.951-7.368l.067-.134c4.558-4.487 7.354-10.838 7.354-17.817 0-7.056-2.796-13.38-7.354-17.952h-.067c-4.55-4.625-10.896-7.42-17.951-7.42-7.029 0-13.326 2.795-17.822 7.42h-.13c-4.535 4.572-7.358 10.896-7.358 17.952 0 6.98 2.823 13.33 7.359 17.817l.129.134a25.148 25.148 0 0 0 17.822 7.368Zm137.972-76.72c6.275-1.646 11.957-5.673 15.423-11.761l.468-.887c3.082-5.776 3.644-12.44 1.998-18.344-1.659-6.324-5.735-11.917-11.81-15.418l-.352-.237c-5.918-3.242-12.662-3.947-18.857-2.274-6.297 1.57-11.952 5.775-15.4 11.814-3.492 5.981-4.223 12.88-2.55 19.231 1.725 6.244 5.761 11.89 11.796 15.418h.04c6.047 3.475 12.898 4.104 19.244 2.458ZM95.97 180.387c-6.654-6.637-15.824-10.794-25.988-10.794-10.124 0-19.272 4.157-25.912 10.794-6.61 6.614-10.686 15.76-10.686 25.898 0 10.165 4.076 19.339 10.686 26.029 6.64 6.582 15.788 10.712 25.912 10.712 10.164 0 19.334-4.13 25.988-10.712 6.623-6.69 10.7-15.864 10.7-26.029 0-10.137-4.077-19.284-10.7-25.898Zm-14.61-43.164c14.726 2.426 27.976 9.482 38.087 19.673h.08a72.44 72.44 0 0 1 4.625 5.147l25.284-14.629c-3.399-10.271-3.555-21.01-.826-31.072 3.609-13.487 12.35-25.56 25.453-33.137l.433-.26c12.96-7.345 27.696-8.861 41-5.253a54.523 54.523 0 0 1 33.186 25.48v.026c7.529 13.015 9.059 27.96 5.464 41.393-3.581 13.478-12.363 25.631-25.453 33.155l-3.452 2.043h-.352c-12.109 5.771-25.426 6.663-37.655 3.447-10.044-2.667-19.258-8.26-26.47-16.23l-25.243 14.585a69.649 69.649 0 0 1 4.509 24.694c0 8.702-1.61 17.09-4.51 24.824l25.244 14.53c7.212-8.072 16.426-13.562 26.47-16.229 13.469-3.684 28.405-2.114 41.46 5.49l.833.393v.053c12.613 7.627 21.078 19.441 24.619 32.767a54.432 54.432 0 0 1-5.464 41.344l-.454.914-.054-.08c-7.564 12.573-19.48 21.091-32.638 24.695-13.5 3.554-28.432 2.038-41.473-5.46v-.106c-13.103-7.578-21.844-19.678-25.453-33.133-2.729-10.035-2.573-20.779.826-31.046l-25.284-14.584c-1.45 1.78-3.02 3.452-4.625 5.071l-.08.076c-10.11 10.142-23.361 17.198-38.088 19.548v29.217c10.494 2.194 19.9 7.448 27.273 14.816l.035.08c9.88 9.825 15.994 23.517 15.994 38.57 0 15.003-6.115 28.61-15.994 38.489l-.035.156c-9.946 9.879-23.598 15.993-38.65 15.993-14.972 0-28.642-6.114-38.56-15.993h-.036v-.156c-9.893-9.879-16.02-23.486-16.02-38.49a54.262 54.262 0 0 1 16.02-38.569v-.08h.035c7.36-7.368 16.779-12.622 27.246-14.816v-29.217c-14.74-2.35-27.95-9.406-38.048-19.548l-.107-.076C7.89 243.053 0 225.624 0 206.285c0-19.284 7.89-36.714 20.511-49.389h.107c10.098-10.19 23.308-17.247 38.048-19.673v-29.087A55.34 55.34 0 0 1 31.42 93.293h-.035v-.08c-9.893-9.928-16.02-23.518-16.02-38.57 0-14.976 6.127-28.695 16.02-38.574l.035-.049C41.34 6.115 55.01 0 69.98 0c15.053 0 28.705 6.115 38.65 16.02v.05h.036c9.88 9.878 15.994 23.597 15.994 38.573 0 15.052-6.115 28.642-15.994 38.57l-.035.08c-7.373 7.319-16.779 12.568-27.273 14.843v29.087Zm142.017-19.392-.21-.312c-3.492-5.882-9.058-9.803-15.213-11.502-6.346-1.672-13.197-.963-19.284 2.511h.04c-6.075 3.448-10.138 9.094-11.837 15.418a25.314 25.314 0 0 0 2.551 19.231l.116.16a24.985 24.985 0 0 0 15.284 11.57 24.829 24.829 0 0 0 19.21-2.48l.325-.156c5.905-3.528 9.838-9.094 11.484-15.208 1.673-6.298 1.008-13.197-2.466-19.232Z" fill="#1A1919"/>
</svg>
